X:1
T:What Have I Done for Jesus?
T:Frederick Howard, 1909
T:What Have I Done for Jesus?
T:Public Domain
T:Public Domain
T:Public Domain
T:Public Domain
C:Frederick Howard, 1909
Z:Public Domain
%%score ( 1 2 ) ( 3 4 )
L:1/8
M:4/4
K:D
V:1 treble 
V:2 treble 
V:3 bass 
V:4 bass 
V:1
 [DF][DF][D^E][DF] [DB]>[DA] [DA][DF] | [CA][CG][CG][Gc] [CG]4 | %2
w: 1.~Have I spok- en words of love, Or|self- ish have I gone?|
w: 2.~Have I held the Sav- ior’s face En-|shrined with- in my heart?|
w: 3.~Travel- er worn with wear- y feet, Be-|hold the Mas- ter’s face;|
 [GB][GB][Gc][GB] [Gd][Gc][Gc][CG] | [CB][CA][CE][C^E] [DF]4 | %4
w: Have I made some black- ness white, Or|sung a cheer- ful song?|
w: Have I lived for gain of gold, My|life ab- sorbed in mart?|
w: Sin- sick soul, all tem- pest torn, Re-|pose in His em- brace;|
 [DF][DF][D^E][DF] [DB]>[DA] [DA][DF] | [CA][CG][CG][Gc] [CG]4 | %6
w: Have I brought a smile of hope, Or|wiped sad tears a- way?|
w: Have I vis- it- ed the sick, Their|fe- ver to al- lay?|
w: Wea- ry ones, heart- ach- ing ones, Be-|hold, His is the way,|
 [CE][DF][EG][FA] [GB][Gc][Fd][DF] | [CA][CG][CG][A,C] [A,D]4 || %8
w: Have I done a sin- gle thing In|Je- sus’ name to- day?|
w: Have I done a sin- gle thing In|Je- sus’ name to- day?|
w: Let me lead you to the Christ In|Je- sus’ name to- day.|
"^Refrain" [DF][D^E][DF][DB] [DA][DF] | [CA] [CG]3 z [CG] | [Gc][DB][CA][CG] [CA][CB] | %11
w: Fa- ther, in pen- i- tence|plead- ing, For-|give- ness I ask not in|
w: Fa- ther, in pen- i- tence|plead- ing, For-|give- ness I ask not in|
w: Fa- ther, Thy name I have|spok- en, I’ve|walked close be- side Thee all|
 [DA]4 z [FA] | [FA][^E^G][FA][Fd] [FA][F^A] | [GB] [GB]3 z [GB] | [^GB][G^A][GB][GB] [Ge][Gd] | %15
w: vain; To-|mor- row, if spared thro’ Thy|mer- cy, I’ll|serve Thee a- gain and a-|
w: vain; To-|mor- row, if spared thro’ Thy|mer- cy, I’ll|serve Thee a- gain and a-|
w: day, I’ve|clung to the hem of Thy|gar- ment, In|fear lest I lo- se my|
 [Ac]4 z [Gc] | [Fd]>[Fd] [Fd][Fc] [Fc][DF] | [CB] [CB]3 z [CB] | [DB]2 [EB][DB] [DA]D | %19
w: gain. I’ll|lift up the bruis- èd and|fall- en, I’ll|lead the blind to the|
w: gain. I’ll|lift up the bruis- èd and|fall- en, I’ll|lead the blind to the|
w: way. I’ve|told o- thers that sweet old|sto- ry From|Heav’n they’ve se- en Thy|
 [CG]4 z [CG]/[CG]/ | [DF]>[DF] [DF][CG] [CG][DA] | [DB] [Gd]3 z [Gc]/[GB]/ | %22
w: For to- day|I’ve done no- thing for Je-|sus— Hold me close|
w: For to- day|I’ve done no- thing for Je-|sus— Hold me close|
w: T- o- day|I’ve done some- thing for Je-|sus, Let me rest|
 [DA][A,D][A,D] [CG]2 [A,C] | [A,D]4 z2 |] %24
w: in Your arms to- night.||
w: in Your arms to- night.||
w: in His arms to- night.||
V:2
 x8 | x8 | x8 | x8 | x8 | x8 | x8 | x8 || x6 | x6 | x6 | x6 | x6 | x6 | x6 | x6 | x6 | x6 | x5 D | %19
w: ||||||||||||||||||light;|
w: ||||||||||||||||||light;|
w: ||||||||||||||||||light;|
 x6 | x6 | x6 | x6 | x6 |] %24
w: |||||
w: |||||
w: |||||
V:3
 [D,A,][D,A,][D,^G,][D,A,] [D,=G,]>[D,F,] [D,F,][D,A,] | [E,A,][A,,A,][A,,A,][A,,A,] [A,,E,A,]4 | %2
 [A,,A,][A,,A,][A,,A,][A,,A,] [A,,A,][A,,A,][A,,A,][A,,A,] | [A,,G,][A,,G,][A,,A,][A,,A,] [D,A,]4 | %4
 [D,A,][D,A,][D,^G,][D,A,] [D,=G,]>[D,F,] [D,F,][D,A,] | [E,A,][A,,A,][A,,A,][A,,A,] [A,,E,A,]4 | %6
 [A,,A,][A,,A,][A,,A,][A,,A,] [A,,C][A,,A,][A,,A,][D,A,] | [A,,G,][A,,E,][A,,E,][A,,G,] [D,F,]4 || %8
 [D,A,][D,^G,][D,A,][D,=G,] [D,F,][D,A,] | [E,A,] [A,,A,]3 z [A,,A,] | %10
 [A,,E,][A,,F,][A,,G,][A,,A,] [A,,A,][A,,G,] | [D,F,]4 z [D,A,] | %12
 [D,D][D,D][D,D][D,A,] [D,D][D,D] | [G,D] [G,D]3 z [G,D] | [E,D][E,D][E,D][E,E] [E,B,][E,E] | %15
 [A,E]4 z A, | [D,A,]>[D,A,] [D,A,][D,D] [D,D][D,A,] | [E,G,] [A,,G,]3 z [A,,G,] | %18
 [B,,G,]2 [C,G,][D,G,] [D,F,][D,F,] | [A,,A,]4 z [A,,A,]/[A,,A,]/ | %20
 [D,A,]>[D,A,] [D,A,][E,A,] [E,C][F,A,] | G, [G,B,]3 z [G,,A,]/[G,,G,]/ | %22
 [A,,F,][A,,F,][A,,F,] [A,,E,]2 [A,,G,] | [D,F,]4 z2 |] %24
V:4
 x8 | x8 | x8 | x8 | x8 | x8 | x8 | x8 || x6 | x6 | x6 | x6 | x6 | x6 | x6 | x5 A, | x6 | x6 | x6 | %19
 x6 | x6 | G, x5 | x6 | x6 |] %24

